X:17
T:Mum's Jig
R: jig
M: 6/8
L: 1/8
K:Ador
|: EAA ABc | B2A A2G | EAA ABc | B2B BAG |
   EAA ABc | B2A Agf | g2g gfe | dBG BAG :|
|: AaA g2g | fed edB | AaA g3 | BAG BAG |
   AaA g2g | fed edB | ABc Bcd | cde dBG :|

